dist/img/svg/icon-facebook.svg

<svg width="30" height="30" viewBox="0 0 30 30" fill="none" xmlns="http://www.w3.org/2000/svg">
<circle cx="15" cy="15" r="15" fill="#006A6A"/>
<path d="M13.6577 22.5V15.4616H11.7432V12.9274H13.6577V10.7629C13.6577 9.06198 14.7887 7.5 17.3946 7.5C18.4497 7.5 19.2299 7.59832 19.2299 7.59832L19.1685 9.96481C19.1685 9.96481 18.3728 9.95728 17.5045 9.95728C16.5648 9.95728 16.4142 10.3783 16.4142 11.077V12.9274H19.2432L19.1201 15.4616H16.4142V22.5H13.6577Z" fill="white"/>
</svg>

<svg width="30" height="30" viewBox="0 0 30 30" fill="none" xmlns="http://www.w3.org/2000/svg"><circle cx="15" cy="15" r="15" fill="#006A6A"/><path d="M13.658 22.5v-7.038h-1.915v-2.535h1.915v-2.164c0-1.701 1.13-3.263 3.737-3.263 1.055 0 1.835.098 1.835.098l-.061 2.367s-.796-.008-1.665-.008c-.94 0-1.09.421-1.09 1.12v1.85h2.83l-.124 2.535h-2.706V22.5h-2.756z" fill="#fff"/></svg>
